icons/transistor.svg

<?xml version="1.0" encoding="UTF-8"?>
<svg version="1.1" viewBox="0 0 48 48" xmlns="http://www.w3.org/2000/svg">
    <path d="m41.03 3a2.113 2.276 0 0 0 -2.113 2.275 2.113 2.276 0 0 0 1.084 1.988v7.736h-21v-2h-5v2h-3v-2h-5v2c-1.108 0-2 0.892-2 2v26c0 1.108 0.892 2 2 2h36c1.108 0 2-0.892 2-2v-26c0-1.108-0.892-2-2-2v-7.703a2.113 2.276 0 0 0 1.143 -2.021 2.113 2.276 0 0 0 -2.113 -2.275zm-35.03 14h14v5h-14zm1.117 7h33.77c0.6192 0 1.117 0.498 1.117 1.117v16.77c0 0.6192-0.498 1.117-1.117 1.117h-33.77c-0.6192 0-1.117-0.498-1.117-1.117v-16.77c0-0.6192 0.498-1.117 1.117-1.117z" fill="#fff"/>
</svg>

<svg xmlns="http://www.w3.org/2000/svg" viewBox="0 0 48 48"><defs><style>.a{fill:none;stroke:#fff;stroke-linecap:round;stroke-linejoin:round;}</style></defs><path class="a" d="M41,3a2.2,2.2,0,0,0-2.11,2.28,2.3,2.3,0,0,0,1.08,2V15H19V13H14v2H11V13H6v1.91A2.07,2.07,0,0,0,4,17V43a2,2,0,0,0,2,2H42a2,2,0,0,0,2-2V17a2,2,0,0,0-2-2V7.3a2.3,2.3,0,0,0,1.14-2A2.2,2.2,0,0,0,41,3ZM6,17H20v5H6Zm1.12,7H40.89A1.11,1.11,0,0,1,42,25.12V41.89A1.1,1.1,0,0,1,40.89,43H7.12A1.11,1.11,0,0,1,6,41.89V25.12A1.12,1.12,0,0,1,7.12,24Z"/></svg>
